X:1
T:Beautiful Rose
M:4/4
L:1/8
K:G
 D2 dc B2 G2| EE GG c4| E2 DD G2 c2| B4- A2 z2| D2 dc B2 G2| EE GG c4|\
 e2 dc B2 A2| G6 z2| A2 AA A2 d2| ^cd ec d4| =c4 cc B2| G2 A6| D2 dc B2 G2|\
 EE GG c4| e2 dc B2 A2| G6 z2| ee e2 e4|d-B-d B G4| A2 ABc-d e2| d6 z2|\
 DD dc B2 G2| EE GG c4| e2 dc B2 A2| G6 z2|||
